X: 09024
T: DANA'S JIG
C: Bob McQuillen 11 Feb 93
B: Bob's Note Book 9 #24
R: jig
Z: 2019 John Chambers <jc:trillian.mit.edu>
M: 6/8
L: 1/8
K: D
A \
| dBA F2E | DFA B2A | FAB dfe | dBA FAB |
| dBA F2E | DFA B2d | ABd efe | dBA B2 :|
|: A \
| Bdf a2b | afd B2d | ABd fab | afd B2d |
| efe dfa | baf e2f | dBd AFE | DFA B2 :|
%%begintext align
%% Dana Wells has been dancing for years.
%% He was a good friend of New England Tradition, and he's been on my "tune
%% list" for a long while. He recently sent me a tape of the Canterbury
%% playing back in '74 and '75, and it was fun to listen to, bringing
%% back so many happy memories. Thanks a lot, Dana - That was
%% awfully nice of you!
%%endtext

%%sep 1 1 500

%%sep 1 1 500

